!!!COM: Mozart
!!!OTL: Zwolf Variationen in Es, uber die Romanze 'Je suis Lindor' aus der Komodie 'Le Barbier de Seville'
!!!Variation: Variation 4 c
**function	**harm	**kern	**kern
*	*	*clefF4	*clefG2
*	*	*k[b-e-a-]	*k[b-e-a-]
*M2/4	*M2/4	*M2/4	*M2/4
*E-:	*E-:	*E-:	*E-:
=97	=97	=97	=97
2D	D-:7	8BB-L	24r
.	.	.	(24dLL
.	.	.	24b-JJ)
*	*	*clefG2	*
.	.	(8bb-J	24r
.	.	.	(24dLL
.	.	.	24b-JJ)
.	.	8aaL	24r
.	.	.	(24e-LL
.	.	.	24ccJJ)
.	.	8aa-J	24r
.	.	.	(24fLL
.	.	.	24ddJJ)
=98	=98	=98	=98
8D	G-:maj	8ggL)	24r
.	.	.	(24gLL
.	.	.	24ee-JJ)
*	*	*clefF4	*
8D	G-:min	8E-J 8e-	24r
.	.	.	(24g-LL
.	.	.	24ee-JJ)
8D	E--:maj	8C-L 8c-	24r
.	.	.	(24g-LL
.	.	.	24ee-JJ)
8D	C:dim7	8AAJ 8A	24r
.	.	.	(24g-LL
.	.	.	24ee-JJ)
=99	=99	=99	=99
4.D	D-:maj	8BB-L 8B-	24r
.	.	.	(24fLL
.	.	.	24ddJJ)
*	*	*clefG2	*
.	.	(8bb-J	24r
.	.	.	(24dLL
.	.	.	24b-JJ)
.	.	8cccL	24r
.	.	.	(24e-LL
.	.	.	24aJJ)
8D	D-:7	8dddJ	24r
.	.	.	(24fLL
.	.	.	24a-JJ)
=100	=100	=100	=100
8D	G-:min	8eee-L)	24r
.	.	.	(24e-LL
.	.	.	24g-JJ)
*	*	*clefF4	*
8D	.	8EE-J 8E-	24r
.	.	.	(24e-LL
.	.	.	24g-JJ)
8D	E--:maj	8CC-L 8C-	24r
.	.	.	(24g-LL
.	.	.	24ee-JJ)
8D	C:dim7	8AAAJ 8AA	24r
.	.	.	(24g-LL
.	.	.	24ee-JJ)
=101	=101	=101	=101
2D	D-:7	8BBB-L 8BB-	24r
.	.	.	(24fLL
.	.	.	24ee-JJ)
*	*	*clefG2	*
.	.	8aa-J	24r
.	.	.	(24fLL
.	.	.	24ddJJ)
.	.	8aa-L	24r
.	.	.	(24e-LL
.	.	.	24ccJJ)
.	.	8aa-J	24r
.	.	.	(24dLL
.	.	.	24b-JJ)
*	*	*clefF4	*
=102	=102	=102	=102
2D	D-:7/b7	8AA-L 8A-	24r
.	.	.	(24fLL
.	.	.	24ee-JJ)
*	*	*clefG2	*
.	.	8aa-J	24r
.	.	.	(24fLL
.	.	.	24ddJJ)
.	.	8aa-L	24r
.	.	.	(24e-LL
.	.	.	24ccJJ)
.	.	8aa-J	24r
.	.	.	(24dLL
.	.	.	24b-JJ)
=103	=103	=103	=103
4T	G-:maj	8ggL	24r
.	.	.	(24e-LL
.	.	.	24b-JJ)
.	.	8bbJ	24r
.	.	.	(24e-LL
.	.	.	24gJJ)
8P	C-:maj/5	8cccL	24r
.	.	.	(24e-LL
.	.	.	24a-JJ)
8P	C:dim7/b5	8aaJ	24r
.	.	.	(24e-LL
.	.	.	24g-JJ)
=104	=104	=104	=104
8P	G-:maj	8bb-L	24r
.	.	.	24e-LL
.	.	.	24gJJ
*	*	*clefF4	*
8P	D-:dim7	8B-J 8e	24r
.	.	.	24gLL
.	.	.	24b-JJ
4D	D-:7	8B-L 8f	24r
.	.	.	24a-LL
.	.	.	24b-JJ
.	.	8B-J 8d	24r
.	.	.	24fLL
.	.	.	24b-JJ
=105	=105	=105	=105
2T	G-:maj	8e-L	24r
.	.	.	24gLL
.	.	.	24b-JJ
.	.	8BB-J 8B-	24r
.	.	.	24b-LL
.	.	.	24ee-JJ
.	.	8GGL 8G	24r
.	.	.	24ee-LL
.	.	.	24ggJJ
.	.	8EE-J 8E-	24r
.	.	.	24ggLL
.	.	.	24bb-JJ
*-	*-	*-	*-
!!!EMD: Edited in humdrumR 0.7.0.3 on 2024-01-19
